packages/heroicons/src/interstate/outline/cog-8-tooth.svg

<svg width="16" height="17" viewBox="0 0 16 17" fill="none" xmlns="http://www.w3.org/2000/svg">
<g clip-path="url(#clip0_1243_4938)">
<path d="M6.67794 2.11719C6.75006 1.68443 7.12449 1.36725 7.56321 1.36725H8.43594C8.87466 1.36725 9.24908 1.68443 9.32121 2.11719L9.44005 2.83024C9.49646 3.1687 9.7461 3.44014 10.063 3.57172C10.3801 3.70336 10.7441 3.68578 11.0235 3.48625L11.6119 3.06595C11.9689 2.81095 12.4579 2.85142 12.7681 3.16165L13.3852 3.77876C13.6955 4.08898 13.7359 4.57802 13.4809 4.93503L13.0605 5.52365C12.861 5.80291 12.8434 6.16686 12.975 6.48381C13.1066 6.80064 13.3779 7.05022 13.7163 7.10662L14.4295 7.22548C14.8623 7.29761 15.1794 7.67203 15.1794 8.11076V8.98348C15.1794 9.42221 14.8623 9.79663 14.4295 9.86875L13.7164 9.9876C13.378 10.044 13.1065 10.2936 12.975 10.6105C12.8433 10.9276 12.8609 11.2916 13.0605 11.571L13.4807 12.1593C13.7357 12.5163 13.6952 13.0053 13.385 13.3155L12.7679 13.9326C12.4576 14.2429 11.9686 14.2833 11.6116 14.0283L11.0232 13.608C10.7439 13.4085 10.3799 13.391 10.0629 13.5226C9.74606 13.6541 9.49647 13.9255 9.44007 14.2639L9.32121 14.9771C9.24908 15.4098 8.87466 15.727 8.43594 15.727H7.56321C7.12449 15.727 6.75006 15.4098 6.67794 14.9771L6.55909 14.264C6.50268 13.9255 6.25305 13.6541 5.93615 13.5225C5.61911 13.3909 5.25507 13.4085 4.97573 13.608L4.38728 14.0283C4.03028 14.2833 3.54124 14.2428 3.23101 13.9326L2.61391 13.3155C2.30368 13.0053 2.26321 12.5162 2.51821 12.1592L2.93866 11.5706C3.13813 11.2914 3.15572 10.9274 3.02413 10.6104C2.89259 10.2936 2.62121 10.044 2.28282 9.98762L1.56964 9.86875C1.13688 9.79663 0.819702 9.42221 0.819702 8.98348V8.11076C0.819702 7.67203 1.13688 7.29761 1.56964 7.22548L2.28269 7.10664C2.62116 7.05023 2.8926 6.80059 3.02418 6.48368C3.15581 6.16663 3.13823 5.80257 2.9387 5.52323L2.51852 4.93498C2.26352 4.57797 2.30399 4.08893 2.61422 3.77871L3.23133 3.1616C3.54155 2.85137 4.03059 2.8109 4.3876 3.0659L4.97603 3.48621C5.2553 3.68569 5.61927 3.70328 5.93624 3.57168C6.25309 3.44013 6.50268 3.16875 6.55908 2.83035L6.67794 2.11719Z" stroke="black" stroke-width="1.5" stroke-linecap="round" stroke-linejoin="round"/>
<path d="M10.3934 8.54714C10.3934 9.86892 9.32191 10.9404 8.00013 10.9404C6.67835 10.9404 5.60684 9.86892 5.60684 8.54714C5.60684 7.22536 6.67835 6.15385 8.00013 6.15385C9.32191 6.15385 10.3934 7.22536 10.3934 8.54714Z" stroke="black" stroke-width="1.5" stroke-linecap="round" stroke-linejoin="round"/>
</g>
<defs>
<clipPath id="clip0_1243_4938">
<rect width="16" height="16" fill="white" transform="translate(0 0.547119)"/>
</clipPath>
</defs>
</svg>

<svg viewBox="0 0 16 17">
  <g stroke="currentColor" stroke-linecap="round" stroke-linejoin="round" stroke-width="1.5" clip-path="url(#a)">
    <path d="M6.678 2.159a.897.897 0 0 1 .885-.75h.873c.439 0 .813.317.885.75l.119.713c.056.338.306.61.623.741.317.132.681.114.96-.085l.589-.42a.898.898 0 0 1 1.156.095l.617.617c.31.31.35.8.096 1.156l-.42.589c-.2.28-.218.643-.086.96.132.317.403.567.741.623l.714.119c.432.072.75.446.75.885v.873a.898.898 0 0 1-.75.885l-.714.119c-.338.056-.61.306-.741.623-.132.317-.114.681.085.96l.42.589a.898.898 0 0 1-.095 1.156l-.617.617a.9.9 0 0 1-1.157.096l-.588-.42c-.28-.2-.643-.218-.96-.086-.317.131-.567.403-.623.741l-.119.713a.897.897 0 0 1-.885.75h-.873a.898.898 0 0 1-.885-.75l-.119-.713c-.056-.338-.306-.61-.623-.741-.317-.132-.681-.114-.96.085l-.589.42a.898.898 0 0 1-1.156-.095l-.617-.617a.898.898 0 0 1-.096-1.156l.42-.589c.2-.28.218-.643.086-.96-.131-.317-.403-.567-.741-.623L1.57 9.91a.897.897 0 0 1-.75-.885v-.873c0-.439.317-.813.75-.885l.713-.119c.338-.056.61-.306.741-.623.132-.317.114-.681-.085-.96l-.42-.589a.897.897 0 0 1 .095-1.156l.617-.617a.9.9 0 0 1 1.157-.096l.588.42c.28.2.643.218.96.086.317-.131.567-.403.623-.741l.119-.713Z"/>
    <path d="M10.393 8.589a2.393 2.393 0 1 1-4.786 0 2.393 2.393 0 0 1 4.786 0Z"/>
  </g>
  <defs>
    <clipPath id="a">
      <path d="M0 0h16v16H0z" transform="translate(0 .589)"/>
    </clipPath>
  </defs>
</svg>
